src/images/amenities/hair_dryer.svg

<svg width="21" height="21" viewBox="0 0 21 21" fill="none" xmlns="http://www.w3.org/2000/svg">
<g clip-path="url(#clip0_643:4)">
<path d="M5.63639 6.53002L6.12124 7.18716C5.69538 7.51204 5.27235 7.62662 4.86063 7.62662C4.31962 7.62662 3.79801 7.42784 3.31275 7.24302C2.43922 6.91034 1.87316 6.72962 1.27275 7.18716L0.787903 6.53002C1.77295 5.77841 2.74184 6.14805 3.59639 6.47375C4.46993 6.80766 5.03639 6.98796 5.63639 6.53002ZM3.59639 4.72123C2.74184 4.39554 1.77295 4.02548 0.787903 4.77709L1.27275 5.43423C1.87275 4.97711 2.43922 5.15741 3.31275 5.4905C3.79801 5.67491 4.31962 5.87411 4.86063 5.87411C5.27275 5.87411 5.69538 5.75952 6.12124 5.43464L5.63639 4.7775C5.03639 5.23545 4.46993 5.05391 3.59639 4.72123ZM3.59639 8.47229C2.74184 8.14741 1.77255 7.77777 0.787903 8.52855L1.27275 9.1857C1.87275 8.72857 2.43922 8.90887 3.31275 9.24196C3.79801 9.4272 4.31962 9.62639 4.86063 9.62639C5.27275 9.62639 5.69538 9.51098 6.12124 9.18611L5.63639 8.52896C5.03639 8.98691 4.46993 8.80579 3.59639 8.47229ZM18 7.21427C18 8.57332 16.9128 9.67855 15.5758 9.67855C14.2388 9.67855 13.1515 8.57332 13.1515 7.21427C13.1515 5.85521 14.2388 4.74998 15.5758 4.74998C16.9128 4.74998 18 5.85521 18 7.21427ZM17.192 7.21427C17.192 6.30864 16.4671 5.57141 15.5758 5.57141C14.6845 5.57141 13.9596 6.30864 13.9596 7.21427C13.9596 8.11989 14.6845 8.85712 15.5758 8.85712C16.4671 8.85712 17.192 8.11989 17.192 7.21427ZM20.0202 7.21427C20.0202 9.08754 19.0065 10.622 17.48 11.3214C17.141 12.3387 15.9798 15.9612 15.9798 17.8928V18.3036H10.6065L11.24 17.6119C11.2509 17.6 12.3835 16.3535 13.1847 14.4457C13.8412 12.8813 13.6784 11.8537 13.6073 11.5596C10.834 11.1456 7.54912 10.1254 7.37619 10.0708L7.09094 9.98166V4.44688L7.37619 4.35775C7.59316 4.28957 12.7192 2.69641 15.5758 2.69641C17.9431 2.69641 20.0202 4.80789 20.0202 7.21427ZM16.5249 11.636C16.2206 11.6984 15.9039 11.7321 15.5758 11.7321C15.2291 11.7321 14.8481 11.7079 14.4473 11.6664C14.5281 12.2496 14.535 13.3228 13.9281 14.7685C13.4295 15.9567 12.8198 16.8936 12.3867 17.4821H15.1859C15.2986 15.6701 16.0889 12.9979 16.5249 11.636ZM19.2122 7.21427C19.2122 5.09909 17.2922 3.51784 15.5758 3.51784C13.2109 3.51784 9.02508 4.71959 7.89902 5.05555V9.37216C9.02548 9.70895 13.2122 10.9107 15.5758 10.9107C17.6829 10.9107 19.2122 9.35614 19.2122 7.21427Z" fill="#39412F"/>
</g>
<defs>
<clipPath id="clip0_643:4">
<rect width="19.394" height="19.7143" fill="white" transform="translate(0.707062 0.642822)"/>
</clipPath>
</defs>
</svg>

<svg xmlns="http://www.w3.org/2000/svg" viewBox="0 0 21 21"><g clip-path="url(#a)"><path d="m5.636 6.53.485.657c-.426.325-.849.44-1.26.44-.541 0-1.063-.2-1.548-.384-.874-.333-1.44-.513-2.04-.056L.788 6.53c.985-.752 1.954-.382 2.808-.056.874.334 1.44.514 2.04.056Zm-2.04-1.809c-.854-.325-1.823-.696-2.808.056l.485.657c.6-.457 1.166-.277 2.04.056.485.185 1.007.384 1.548.384.412 0 .834-.114 1.26-.44l-.485-.657c-.6.458-1.166.277-2.04-.056Zm0 3.751c-.854-.325-1.823-.694-2.808.057l.485.657c.6-.457 1.166-.277 2.04.056.485.185 1.007.384 1.548.384.412 0 .834-.115 1.26-.44l-.485-.657c-.6.458-1.166.277-2.04-.057ZM18 7.214c0 1.36-1.087 2.465-2.424 2.465S13.15 8.573 13.15 7.214c0-1.359 1.088-2.464 2.425-2.464C16.913 4.75 18 5.855 18 7.214Zm-.808 0c0-.905-.725-1.643-1.616-1.643-.892 0-1.616.738-1.616 1.643 0 .906.724 1.643 1.616 1.643.891 0 1.616-.737 1.616-1.643Zm2.828 0c0 1.874-1.014 3.408-2.54 4.107-.339 1.018-1.5 4.64-1.5 6.572v.41h-5.373l.633-.691c.01-.012 1.143-1.258 1.945-3.166.656-1.565.493-2.592.422-2.886-2.773-.414-6.058-1.435-6.23-1.49l-.286-.088V4.447l.285-.09c.217-.067 5.343-1.66 8.2-1.66 2.367 0 4.444 2.11 4.444 4.517Zm-3.495 4.422a4.716 4.716 0 0 1-.95.096c-.346 0-.727-.024-1.128-.066.081.584.088 1.657-.519 3.102a13.376 13.376 0 0 1-1.541 2.714h2.799c.113-1.812.903-4.484 1.339-5.846Zm2.687-4.422c0-2.115-1.92-3.696-3.636-3.696-2.365 0-6.55 1.202-7.677 1.538v4.316c1.126.337 5.313 1.539 7.677 1.539 2.107 0 3.636-1.555 3.636-3.697Z" fill="#39412F"/></g><defs><clipPath id="a"><path fill="#fff" transform="translate(.707 .643)" d="M0 0h19.394v19.714H0z"/></clipPath></defs></svg>
